images/calendar.svg

<svg width="16" height="16" viewBox="0 0 16 16" fill="none" xmlns="http://www.w3.org/2000/svg">
<path fill-rule="evenodd" clip-rule="evenodd" d="M11.3337 0V1.33333H4.66708V0H2.66708V1.33333H1.66667C0.749917 1.33333 0 2.08325 0 3V14.3333C0 15.2501 0.749917 16 1.66667 16H14.3337C15.2505 16 16.0004 15.2501 16.0004 14.3333V3C16.0004 2.08325 15.2505 1.33333 14.3337 1.33333H13.3337V0H11.3337ZM12.6671 8.66667H8.66708V12.6667H12.6671V8.66667ZM1.66667 14.3333H14.3338V5.5H1.66667V14.3333Z" fill="#4BB1DA"/>
</svg>

<svg xmlns="http://www.w3.org/2000/svg" width="16" height="16" fill="none"><path fill="#4BB1DA" fill-rule="evenodd" d="M11.334 0v1.333H4.667V0h-2v1.333h-1C.75 1.333 0 2.083 0 3v11.333C0 15.25.75 16 1.667 16h12.667C15.25 16 16 15.25 16 14.333V3c0-.917-.75-1.667-1.666-1.667h-1V0h-2Zm1.333 8.667h-4v4h4v-4Zm-11 5.666h12.667V5.5H1.667v8.833Z" clip-rule="evenodd"/></svg>
